local/share/icons/dracula-icons-main/16/places/folder-torrent.svg

<svg xmlns="http://www.w3.org/2000/svg" width="16" height="16" version="1.1" viewBox="0 0 16 16">
 <defs>
  <style id="current-color-scheme" type="text/css">
   .ColorScheme-Text { color:#FFFFFF; } .ColorScheme-Highlight { color:#5294e2; }
  </style>
 </defs>
 <path style="fill:currentColor" class="ColorScheme-Text" d="m 8,0 a 8,8 0 0 0 -8,8 8,8 0 0 0 8,8 8,8 0 0 0 5.277344,-2 L 8,14 A 6,6 0 0 1 2,8 6,6 0 0 1 8,2 l 0,1 a 5,5 0 0 0 -5,5 5,5 0 0 0 5,5 l 3.308594,0 2.927734,0 a 8,8 0 0 0 0.683594,-1 L 8,12 C 5.790861,12 4,10.209139 4,8 4,5.790861 5.790861,4 8,4 8.337519,4.00126 8.673523,4.045229 9,4.1308594 L 9,5.1757812 C 8.679075,5.0608002 8.3409,5.0014 8,5 6.343146,5 5,6.343146 5,8 c 0,1.656854 1.343146,3 3,3 l 7.410156,0 a 8,8 0 0 0 0.324219,-1 L 8,10 A 2,2 0 0 1 6,8 2,2 0 0 1 8,6 2,2 0 0 1 9.730469,7 L 8,7 A 1,1 0 0 0 7,8 1,1 0 0 0 8,9 l 7.929688,0 a 8,8 0 0 0 0.07031,-1 8,8 0 0 0 -8,-8 z"/>
</svg>

<?xml version="1.0" encoding="UTF-8"?>
<svg xmlns="http://www.w3.org/2000/svg" xmlns:xlink="http://www.w3.org/1999/xlink" width="16" height="16" viewBox="0 0 16 16">
<path fill-rule="nonzero" fill="rgb(100%, 100%, 100%)" fill-opacity="1" d="M 8 0 C 3.582031 0 0 3.582031 0 8 C 0 12.417969 3.582031 16 8 16 C 9.945312 15.996094 11.820312 15.285156 13.277344 14 L 8 14 C 4.6875 14 2 11.3125 2 8 C 2 4.6875 4.6875 2 8 2 L 8 3 C 5.238281 3 3 5.238281 3 8 C 3 10.761719 5.238281 13 8 13 L 14.234375 13 C 14.488281 12.683594 14.71875 12.351562 14.921875 12 L 8 12 C 5.789062 12 4 10.210938 4 8 C 4 5.789062 5.789062 4 8 4 C 8.335938 4 8.671875 4.046875 9 4.132812 L 9 5.175781 C 8.679688 5.0625 8.339844 5 8 5 C 6.34375 5 5 6.34375 5 8 C 5 9.65625 6.34375 11 8 11 L 15.410156 11 C 15.539062 10.675781 15.648438 10.339844 15.734375 10 L 8 10 C 6.894531 10 6 9.105469 6 8 C 6 6.894531 6.894531 6 8 6 C 8.714844 6 9.375 6.382812 9.730469 7 L 8 7 C 7.449219 7 7 7.449219 7 8 C 7 8.550781 7.449219 9 8 9 L 15.929688 9 C 15.972656 8.667969 15.996094 8.335938 16 8 C 16 3.582031 12.417969 0 8 0 Z M 8 0 "/>
</svg>
